X: 1798
T: Petty Goat
B: australian traditional tunes wiki
M:4/4
L:1/8
R: Quickstep
Q: 1/4=100
K:G
V:1 
A2B2A2G2|:"C"E8-|"C"E2A2G2E2|"G"D8-|"G"D2EDE2_E2|"D7"D2d6|1"D7"d2d2e2e2|"G"d8-|"G"d2B2A2G2:|2"D7"d2d2B2G2|"G"G2GGG2G2|"G"G2g2a2b2||
|:"C"c'8|e8|"G"b2bbb2g2|d8|"D7"c2A2F2D2|c2A2F2D2|"G"G2GGG2G2|1B2g2a2b2:|2"D"A2B2A2G2:|"G""Final"G8||
% abcbook-tune_id 6342d53aa4e21e66c5511211


% abcbook-boost 0
% abcbook-tablature 
% abcbook-transpose 
% abcbook-lastupdated 1665324384543
% abcbook-soundfonts 
% abcbook-repeats 1
% NFF Book 2015

